img/service-5.svg

<svg width="60" height="60" viewBox="0 0 60 60" fill="none" xmlns="http://www.w3.org/2000/svg">
<circle cx="30" cy="30" r="30" fill="#FDDBDC"/>
<path d="M44.3253 30.7506C43.9507 30.4194 43.54 30.1252 43.0997 29.8726C41.6785 29.0817 40.3943 29.2655 39.225 29.6685V25.555C40.254 25.0495 41.253 24.3662 41.637 22.9552C41.721 22.6441 41.778 22.3274 41.832 22.0191C41.8835 21.5177 42.0276 21.0282 42.258 20.572C42.3432 20.4381 42.3888 20.2858 42.39 20.1303C42.3891 19.9503 42.3252 19.7755 42.2078 19.6319C42.0905 19.4884 41.9261 19.3839 41.7392 19.3342C41.5524 19.2844 41.3531 19.2921 41.1714 19.356C40.9896 19.4199 40.8351 19.5367 40.731 19.6887C40.365 20.3301 40.1358 21.0308 40.056 21.7525C40.005 22.0358 39.957 22.3052 39.891 22.5496C39.8125 22.8397 39.6673 23.1107 39.4654 23.3441C39.2635 23.5776 39.0096 23.768 38.721 23.9023C36.0702 22.4817 33.0614 21.7337 29.9985 21.7337C26.9356 21.7337 23.9269 22.4817 21.276 23.9023C20.9882 23.7674 20.735 23.5768 20.5337 23.3435C20.3324 23.1101 20.1875 22.8394 20.109 22.5496C20.043 22.3052 19.995 22.0358 19.944 21.7525C19.8643 21.0308 19.6351 20.3301 19.269 19.6887C19.1909 19.5688 19.0804 19.4699 18.9483 19.4017C18.8162 19.3335 18.6672 19.2984 18.516 19.2998C18.3553 19.2993 18.1974 19.3385 18.0585 19.4134C17.9196 19.4882 17.8048 19.596 17.7259 19.7257C17.647 19.8553 17.6069 20.0021 17.6098 20.1509C17.6126 20.2996 17.6583 20.445 17.742 20.572C17.9725 21.0282 18.1165 21.5177 18.168 22.0191C18.222 22.3274 18.279 22.6441 18.363 22.9552C18.747 24.3662 19.746 25.0495 20.775 25.555V29.6686C19.6056 29.2655 18.3212 29.0817 16.9007 29.8726C16.4603 30.1251 16.0495 30.4194 15.6748 30.7506C15.587 30.8248 15.5159 30.9144 15.4657 31.0142C15.4154 31.114 15.3871 31.222 15.3822 31.332C15.3774 31.442 15.3961 31.5519 15.4373 31.6551C15.4786 31.7584 15.5415 31.8531 15.6225 31.9337C15.7035 32.0143 15.801 32.0793 15.9092 32.1248C16.0175 32.1704 16.1344 32.1956 16.2533 32.199C16.3722 32.2025 16.4906 32.1841 16.6017 32.1449C16.7129 32.1058 16.8145 32.0466 16.9008 31.9708C17.1843 31.7187 17.4949 31.4943 17.8279 31.301C18.7795 30.7702 19.5514 30.9671 20.7912 31.4783C20.8057 33.0745 21.0596 34.6611 21.5455 36.1926C21.5271 36.2008 21.5083 36.21 21.49 36.2182C20.2461 36.7751 18.836 37.4063 18.3626 39.1466C18.2776 39.4588 18.222 39.7762 18.1681 40.083C18.117 40.5847 17.9731 41.0745 17.7425 41.5309C17.6511 41.6712 17.6056 41.833 17.6118 41.9968C17.6179 42.1606 17.6753 42.3191 17.777 42.4532H17.777C17.8626 42.5648 17.9765 42.6552 18.1088 42.7162C18.2411 42.7773 18.3876 42.8071 18.5354 42.8031C18.6831 42.7991 18.8275 42.7614 18.9557 42.6933C19.0839 42.6252 19.192 42.5289 19.2703 42.4128C19.6353 41.7716 19.8642 41.0716 19.9446 40.3507C19.9947 40.0659 20.0419 39.7968 20.1081 39.5535C20.3616 38.622 21.051 38.2668 22.2429 37.7327C23.364 39.6656 24.9811 40.5256 26.5681 41.3679C27.585 41.8538 28.5257 42.4659 29.3641 43.1872L30 43.7761L30.636 43.1872C31.4744 42.4659 32.4151 41.8539 33.432 41.3679C35.019 40.5256 36.6362 39.6656 37.7573 37.7326C38.949 38.2669 39.6385 38.6221 39.892 39.5535C39.9582 39.7968 40.0054 40.0659 40.0555 40.351C40.1359 41.0718 40.3648 41.7717 40.7298 42.4128C40.8081 42.5289 40.9162 42.6252 41.0444 42.6933C41.1726 42.7614 41.317 42.7991 41.4647 42.8031C41.6125 42.8071 41.759 42.7773 41.8913 42.7162C42.0236 42.6552 42.1375 42.5649 42.223 42.4532C42.3248 42.3192 42.3822 42.1606 42.3883 41.9968C42.3944 41.8331 42.349 41.6712 42.2575 41.5309C42.027 41.0746 41.8831 40.5849 41.832 40.0833C41.7781 39.7762 41.7225 39.4589 41.6375 39.1467C41.1641 37.406 39.754 36.7748 38.5095 36.2182C38.4913 36.2101 38.4727 36.201 38.4545 36.1928C38.9405 34.6612 39.1944 33.0745 39.2088 31.4782C40.4484 30.9674 41.2198 30.7709 42.1724 31.301C42.5053 31.4943 42.8159 31.7187 43.0992 31.9708C43.1855 32.0466 43.2872 32.1058 43.3983 32.145C43.5095 32.1842 43.6279 32.2026 43.7468 32.1991C43.8657 32.1957 43.9826 32.1705 44.0909 32.1249C44.1992 32.0794 44.2967 32.0144 44.3777 31.9338C44.4587 31.8532 44.5216 31.7585 44.5629 31.6552C44.6041 31.5519 44.6229 31.4421 44.618 31.3321C44.6131 31.2221 44.5848 31.114 44.5345 31.0142C44.4843 30.9144 44.4132 30.8248 44.3253 30.7506H44.3253ZM32.535 39.9235C31.6417 40.3678 30.7932 40.8856 30 41.4706C29.2064 40.8862 28.358 40.3685 27.465 39.9235C24.84 38.5319 22.575 37.3292 22.575 30.5686V25.1384C22.698 25.0773 22.818 25.0189 22.941 24.9606C25.1288 23.9335 27.5471 23.3982 30.0001 23.3982C32.453 23.3982 34.8714 23.9335 37.0591 24.9606C37.1821 25.0189 37.3021 25.0773 37.4251 25.1384V30.5686C37.425 37.3292 35.16 38.5319 32.535 39.9235Z" fill="white"/>
<path d="M29.9998 17.6666C30.88 17.6675 31.7328 17.95 32.4138 18.4663C33.0948 18.9826 33.5621 19.701 33.7366 20.4998C33.7744 20.6926 33.8835 20.8673 34.0452 20.9937C34.2069 21.1202 34.4111 21.1906 34.6228 21.1928V21.1928C34.7562 21.1924 34.888 21.1647 35.0085 21.1116C35.129 21.0584 35.2353 20.9812 35.3197 20.8855C35.4042 20.7898 35.4647 20.678 35.4968 20.5581C35.529 20.4381 35.5321 20.3131 35.5059 20.1919C35.2547 19.0108 34.5684 17.9471 33.5642 17.1826C32.5599 16.418 31.3001 16 30 16C28.6998 16 27.44 16.418 26.4358 17.1826C25.4316 17.9471 24.7452 19.0108 24.4941 20.1919C24.4678 20.3131 24.4709 20.4381 24.5031 20.5581C24.5353 20.678 24.5958 20.7898 24.6802 20.8855C24.7647 20.9812 24.871 21.0584 24.9915 21.1116C25.112 21.1647 25.2437 21.1924 25.3772 21.1928V21.1928C25.5889 21.1906 25.7931 21.1202 25.9548 20.9937C26.1165 20.8672 26.2256 20.6926 26.2634 20.4997C26.4378 19.701 26.905 18.9826 27.586 18.4663C28.2669 17.95 29.1197 17.6674 29.9998 17.6666V17.6666Z" fill="white"/>
</svg>

<svg width="60" height="60" fill="none" xmlns="http://www.w3.org/2000/svg"><circle cx="30" cy="30" r="30" fill="#FDDBDC"/><path d="M44.325 30.75a7.436 7.436 0 00-1.225-.877c-1.422-.791-2.706-.608-3.875-.204v-4.114c1.029-.506 2.028-1.189 2.412-2.6.084-.31.141-.628.195-.936.051-.501.196-.99.426-1.447a.834.834 0 00.132-.442.793.793 0 00-.182-.498.904.904 0 00-.469-.298.967.967 0 00-.568.022.889.889 0 00-.44.333 5.348 5.348 0 00-.675 2.064c-.051.283-.099.552-.165.797-.078.29-.224.56-.426.794a2.221 2.221 0 01-.744.558 18.495 18.495 0 00-8.722-2.168c-3.063 0-6.072.748-8.723 2.168a2.227 2.227 0 01-.742-.559 2.029 2.029 0 01-.425-.793c-.066-.245-.114-.514-.165-.797a5.344 5.344 0 00-.675-2.064.842.842 0 00-.32-.287.925.925 0 00-.433-.102.96.96 0 00-.457.113.87.87 0 00-.333.313.787.787 0 00.016.846c.23.456.374.946.426 1.447.054.308.111.625.195.936.384 1.411 1.383 2.095 2.412 2.6v4.114c-1.17-.404-2.454-.587-3.874.204-.44.252-.852.546-1.226.878a.84.84 0 00-.21.263.783.783 0 00.158.92c.08.08.178.145.286.19a.958.958 0 00.992-.153c.283-.252.594-.477.927-.67.951-.53 1.723-.334 2.963.177.015 1.596.269 3.183.755 4.715l-.056.025c-1.244.557-2.654 1.188-3.127 2.929-.085.312-.141.63-.195.936a4.139 4.139 0 01-.425 1.448.797.797 0 00.034.922c.086.112.2.202.332.263a.957.957 0 00.847-.023.87.87 0 00.314-.28 5.369 5.369 0 00.675-2.062c.05-.285.097-.554.163-.797.254-.932.943-1.287 2.135-1.821 1.121 1.933 2.738 2.793 4.325 3.635a12.643 12.643 0 012.796 1.82l.636.588.636-.589a12.646 12.646 0 012.796-1.82c1.587-.841 3.204-1.701 4.325-3.634 1.192.534 1.882.89 2.135 1.82.066.244.113.513.163.798.08.72.31 1.42.675 2.062a.87.87 0 00.314.28.952.952 0 00.847.023.881.881 0 00.332-.263.797.797 0 00.035-.922 4.139 4.139 0 01-.426-1.448c-.054-.307-.11-.624-.194-.936-.474-1.741-1.884-2.372-3.128-2.929l-.055-.025c.486-1.532.74-3.118.754-4.715 1.24-.51 2.01-.707 2.963-.177.333.193.644.418.927.67a.914.914 0 00.3.174.964.964 0 00.692-.02.901.901 0 00.287-.191.826.826 0 00.185-.279.778.778 0 00-.029-.64.84.84 0 00-.209-.264zm-11.79 9.173A17.1 17.1 0 0030 41.471a17.247 17.247 0 00-2.535-1.547c-2.625-1.392-4.89-2.595-4.89-9.355v-5.43A16.634 16.634 0 0130 23.398a16.634 16.634 0 017.425 1.74v5.43c0 6.76-2.265 7.963-4.89 9.354z" fill="#fff"/><path d="M30 17.667c.88 0 1.733.283 2.414.8a3.498 3.498 0 011.323 2.033.832.832 0 00.308.494.955.955 0 00.578.199.965.965 0 00.386-.081.897.897 0 00.31-.226.813.813 0 00.178-.328.777.777 0 00.009-.366c-.251-1.181-.938-2.245-1.942-3.01A5.894 5.894 0 0030 16c-1.3 0-2.56.418-3.564 1.183-1.004.764-1.69 1.828-1.942 3.009a.775.775 0 00.01.366c.031.12.092.232.176.328.085.095.191.172.311.226a.955.955 0 00.963-.118.832.832 0 00.31-.494 3.498 3.498 0 011.322-2.034 4.008 4.008 0 012.414-.8z" fill="#fff"/></svg>
